img/contacts/vkontakte.svg

<?xml version="1.0" encoding="UTF-8"?>
<svg xmlns="http://www.w3.org/2000/svg" xmlns:xlink="http://www.w3.org/1999/xlink" viewBox="0 0 30 30" width="30px" height="30px">
<g id="surface38514301">
<path style=" stroke:none;fill-rule:nonzero;fill:rgb(100%,100%,100%);fill-opacity:1;" d="M 15 3 C 8.371094 3 3 8.371094 3 15 C 3 21.628906 8.371094 27 15 27 C 21.628906 27 27 21.628906 27 15 C 27 8.371094 21.628906 3 15 3 Z M 21.359375 18.96875 L 19.492188 18.992188 C 19.492188 18.992188 19.089844 19.070312 18.5625 18.707031 C 17.863281 18.226562 17.203125 16.980469 16.691406 17.140625 C 16.171875 17.308594 16.1875 18.429688 16.1875 18.429688 C 16.1875 18.429688 16.191406 18.628906 16.070312 18.757812 C 15.941406 18.898438 15.6875 18.882812 15.6875 18.882812 L 14.851562 18.882812 C 14.851562 18.882812 13.007812 19.035156 11.378906 17.339844 C 9.605469 15.492188 8.039062 11.84375 8.039062 11.84375 C 8.039062 11.84375 7.949219 11.613281 8.046875 11.492188 C 8.15625 11.363281 8.457031 11.359375 8.457031 11.359375 L 10.457031 11.351562 C 10.457031 11.351562 10.644531 11.382812 10.78125 11.484375 C 10.890625 11.566406 10.953125 11.71875 10.953125 11.71875 C 10.953125 11.71875 11.277344 12.539062 11.707031 13.28125 C 12.542969 14.726562 12.929688 15.042969 13.214844 14.886719 C 13.628906 14.660156 13.503906 12.84375 13.503906 12.84375 C 13.503906 12.84375 13.511719 12.183594 13.296875 11.890625 C 13.128906 11.660156 12.8125 11.59375 12.675781 11.574219 C 12.5625 11.5625 12.746094 11.300781 12.984375 11.179688 C 13.347656 11.003906 13.980469 10.996094 14.734375 11.003906 C 15.316406 11.007812 15.488281 11.042969 15.714844 11.101562 C 16.40625 11.265625 16.171875 11.910156 16.171875 13.457031 C 16.171875 13.949219 16.082031 14.648438 16.4375 14.875 C 16.59375 14.976562 16.96875 14.890625 17.902344 13.296875 C 18.347656 12.539062 18.679688 11.652344 18.679688 11.652344 C 18.679688 11.652344 18.753906 11.496094 18.867188 11.425781 C 18.980469 11.355469 19.136719 11.378906 19.136719 11.378906 L 21.242188 11.367188 C 21.242188 11.367188 21.875 11.289062 21.976562 11.578125 C 22.085938 11.878906 21.742188 12.578125 20.882812 13.726562 C 19.46875 15.609375 19.3125 15.433594 20.484375 16.523438 C 21.605469 17.566406 21.835938 18.070312 21.875 18.136719 C 22.339844 18.90625 21.359375 18.96875 21.359375 18.96875 Z M 21.359375 18.96875 "/>
</g>
</svg>

<?xml version="1.0"?><svg fill="#000000" xmlns="http://www.w3.org/2000/svg"  viewBox="0 0 30 30" width="30px" height="30px">    <path d="M15,3C8.373,3,3,8.373,3,15c0,6.627,5.373,12,12,12s12-5.373,12-12C27,8.373,21.627,3,15,3z M21.361,18.967l-1.868,0.026 c0,0-0.403,0.079-0.93-0.285c-0.699-0.48-1.358-1.729-1.872-1.567c-0.521,0.166-0.505,1.29-0.505,1.29s0.004,0.198-0.115,0.327 c-0.129,0.139-0.382,0.125-0.382,0.125h-0.837c0,0-1.846,0.153-3.473-1.543c-1.772-1.849-3.338-5.498-3.338-5.498 s-0.092-0.23,0.006-0.348c0.111-0.13,0.41-0.134,0.41-0.134l2-0.01c0,0,0.188,0.033,0.324,0.133 c0.111,0.082,0.174,0.236,0.174,0.236s0.323,0.819,0.752,1.561c0.836,1.446,1.224,1.763,1.508,1.608 c0.414-0.226,0.29-2.044,0.29-2.044s0.008-0.66-0.208-0.954c-0.168-0.229-0.484-0.297-0.622-0.314 c-0.113-0.015,0.071-0.277,0.311-0.395c0.36-0.176,0.996-0.186,1.747-0.179c0.585,0.006,0.754,0.042,0.982,0.098 c0.69,0.167,0.456,0.811,0.456,2.356c0,0.495-0.089,1.191,0.267,1.42c0.154,0.099,0.529,0.015,1.464-1.579 c0.445-0.756,0.778-1.644,0.778-1.644s0.073-0.158,0.186-0.226c0.116-0.07,0.272-0.048,0.272-0.048l2.105-0.013 c0,0,0.632-0.076,0.735,0.211c0.108,0.3-0.236,1.001-1.096,2.148c-1.412,1.884-1.569,1.709-0.396,2.799 c1.12,1.041,1.351,1.547,1.39,1.611C22.339,18.906,21.361,18.967,21.361,18.967z"/></svg>
